picto/no-thoroughfare-framed.svg

<svg class="color-immutable" width="30" height="30" viewBox="0 0 30 30" fill="none" xmlns="http://www.w3.org/2000/svg"><path d="M29.9999 0H0V29.9999H29.9999V0Z" fill="#2D327D"/><path d="M25.4999 2.99999C26.3249 2.99999 26.9999 3.67499 26.9999 4.49999V25.4999C26.9999 26.3249 26.3249 26.9999 25.4999 26.9999H4.49999C3.67499 26.9999 2.99999 26.3249 2.99999 25.4999V4.49999C2.99999 3.67499 3.67499 2.99999 4.49999 2.99999H25.4999ZM25.4999 2.62499H4.49999C3.46612 2.62499 2.62499 3.46612 2.62499 4.49999V25.4999C2.62499 26.5338 3.46612 27.3749 4.49999 27.3749H25.4999C26.5338 27.3749 27.3749 26.5338 27.3749 25.4999V4.49999C27.3749 3.46612 26.5338 2.62499 25.4999 2.62499Z" fill="white"/><path d="M23.9999 15C23.9999 19.9705 19.9705 23.9999 15 23.9999C10.0294 23.9999 5.99998 19.9705 5.99998 15C5.99998 10.0294 10.0293 5.99998 15 5.99998C19.9706 5.99998 23.9999 10.0294 23.9999 15Z" fill="white"/><path d="M15 5.99998C10.0294 5.99998 5.99998 10.0294 5.99998 15C5.99998 19.9704 10.0294 23.9999 15 23.9999C19.9705 23.9999 23.9999 19.9705 23.9999 15C23.9999 10.0294 19.9705 5.99998 15 5.99998ZM15 21.7499C11.272 21.7499 8.24998 18.7278 8.24998 15C8.24998 11.272 11.272 8.24998 15 8.24998C18.7279 8.24998 21.7499 11.272 21.7499 15C21.7499 18.7278 18.7279 21.7499 15 21.7499Z" fill="#EB0000"/><path d="M19.8263 11.25H10.1736C9.89873 11.25 9.67576 11.4736 9.67576 11.7484C9.67576 12.0239 9.89873 12.2469 10.1736 12.2469H13.6261V20.6285C13.6261 20.9135 13.8557 21.1439 14.1408 21.1439C14.4259 21.1439 14.6565 20.9135 14.6565 20.6285V16.2103H15.3432V20.6285C15.3432 20.9135 15.5748 21.1439 15.8588 21.1439C16.1432 21.1439 16.3729 20.9135 16.3729 20.6285V12.2469H19.8262C20.1002 12.2469 20.3241 12.024 20.3241 11.7485C20.3242 11.4736 20.1003 11.25 19.8263 11.25Z" fill="black"/><path d="M14.9994 10.7812C15.5681 10.7812 16.0312 10.3207 16.0312 9.75035C16.0312 9.18185 15.5681 8.71873 14.9994 8.71873C14.4308 8.71873 13.9687 9.18185 13.9687 9.75035C13.9687 10.3207 14.4308 10.7812 14.9994 10.7812Z" fill="black"/></svg>

<svg class="color-immutable" width="30" height="30" viewBox="0 0 30 30" fill="none" xmlns="http://www.w3.org/2000/svg"><path d="M30 0H0v30h30V0Z" fill="#2D327D"/><path d="M25.5 3c.825 0 1.5.675 1.5 1.5v21c0 .825-.675 1.5-1.5 1.5h-21c-.825 0-1.5-.675-1.5-1.5v-21C3 3.675 3.675 3 4.5 3h21Zm0-.375h-21A1.877 1.877 0 0 0 2.625 4.5v21c0 1.034.841 1.875 1.875 1.875h21a1.877 1.877 0 0 0 1.875-1.875v-21A1.877 1.877 0 0 0 25.5 2.625Z" fill="#fff"/><path d="M24 15a9 9 0 1 1-18 0 9 9 0 0 1 18 0Z" fill="#fff"/><path d="M15 6a9 9 0 1 0 0 18 9 9 0 0 0 0-18Zm0 15.75a6.75 6.75 0 1 1 0-13.5 6.75 6.75 0 0 1 0 13.5Z" fill="#EB0000"/><path d="M19.826 11.25h-9.652a.498.498 0 0 0 0 .997h3.452v8.381a.514.514 0 1 0 1.03 0V16.21h.687v4.418a.516.516 0 0 0 1.03 0v-8.381h3.453a.499.499 0 0 0 0-.997ZM15 10.781a1.031 1.031 0 1 0 0-2.063 1.031 1.031 0 0 0 0 2.063Z" fill="#000"/></svg>
